!!!COM: Bach, Johann Sebastian
!!!CDT: 1685/3//-1750/7/28/
!!!OTL@@DE: Nun ruhen alle Waelder
!!!OTL@EN:  Now rests all the forest
!!!AGN: 4-Part Chorale
!!!SCT: BH 117
!!!SCT: BWV 244
**harm	**root	**kern	**kern	**kern	**kern
!	!	!bass	!tenor	!alto	!soprno
*	*Iorgan	*Iorgan	*Iorgan	*Iorgan	*Iorgan
*M4/4	*M4/4	*M4/4	*M4/4	*M4/4	*M4/4
*met(c)	*met(c)	*met(c)	*met(c)	*met(c)	*met(c)
*MM60	*MM60	*MM60	*MM60	*MM60	*MM60
*k[b-e-]	*k[b-e-]	*k[b-e-]	*k[b-e-]	*k[b-e-]	*k[b-e-]
*B-:	*B-:	*B-:	*B-:	*B-:	*B-:
I	4AA-	4B-	4f	4b-	4dd
=1	=1	=1	=1	=1	=1
IV	4DD-	8e-	4e-	4g	4b-
.	.	8d	.	.	.
viiob	4GG	4c	4e-	4a	4cc
I	4AA-	4.B-	8f	8b-	8dd
.	.	.	8e-	8cc	8ee-
I	4AA-	.	8d	4dd	4ff
.	.	8A	8c	.	.
=2	=2	=2	=2	=2	=2
IV7b	4DD-	4G	4B-	4dd	2ee-
V7b	4EE-	4A	4f	4cc	.
I;	4AA-;	4B-;	4f;	4b-;	4dd;
vi	4FF	4G	4g	4b-	8dd
.	.	.	.	.	8ee-
=3	=3	=3	=3	=3	=3
Ib	4AA-	8D	4f	8b-	4ff
.	.	8C	.	8a	.
Ib	4AA-	8D	4f	8b-	4ff
.	.	8E-	.	8g	.
V	4EE-	8F	4f	8a	4cc
.	.	8E-	.	8g	.
iii	4CC	4D	4A	4f	4dd
=4	=4	=4	=4	=4	=4
viib/V	2DD	2G	8B-	4f	2b-
.	.	.	8A	.	.
.	.	.	4B-	4e	.
V;	4EE-;	4F;	4c;	4f;	4a;
V7d	4EE-	4E-y	8A	4c	4f
.	.	.	8G	.	.
=5	=5	=5	=5	=5	=5
Ib	4AA-	4D	4F	4f	4b-
ii	4BB-	4C	8G	4e-	4cc
.	.	.	8A	.	.
I	4AA-	8BB-	4B-	8d	4dd
.	.	8C	.	8e-	.
Ib	4AA-	8D	4B-	4f	4dd
.	.	8E-	.	.	.
=6	=6	=6	=6	=6	=6
V;	2.EE-;	2.F;	2.A;	2.f;	2.cc;
Vb/vi	4CC	4F#	4d	4a	4dd
!!linebreak: 2
=7	=7	=7	=7	=7	=7
vi	4FF	4G	8d	4g	4b-
.	.	.	8e-	.	.
Vb	4EE-	4A	8d	4f	4cc
.	.	.	8c	.	.
I	4AA-	4B-	8B-	4f	8dd
.	.	.	8c	.	8ee-
V7b/II	4FF	4B	4d	4g	4ff
=8	=8	=8	=8	=8	=8
ii	2BB-	4c	8c	8g	2ee-
.	.	.	8d	8f	.
.	.	4C	8e-	8g	.
.	.	.	8f	8a	.
VI;	4FF;	4G;	4g;	4b;	4dd;
vi	4FF	4G	4g	4b-	8dd
.	.	.	.	.	8ee-
=9	=9	=9	=9	=9	=9
Vb	4EE-	4A	8f	4cc	4ff
.	.	.	8e-	.	.
I	4AA-	4B-	4d	8b-	4ff
.	.	.	.	8a	.
V7d/V	4BB-	8B-	4e	4g	4cc
.	.	8A	.	.	.
III	4CC	8G	4A	4a	4dd
.	.	8F#	.	.	.
=10	=10	=10	=10	=10	=10
vi	4FF	8G	2d	4a	2b-
.	.	8A	.	.	.
vib	4FF	8B-	.	4g	.
.	.	8c	.	.	.
III;	4CC;	4d;	4d;	4f#;	4a;
iii	4CC	4D	4d	4f	4f
=11	=11	=11	=11	=11	=11
vi7	8FF	4G	8d	8f	4b-
IVc	8DD-	.	8e-	8g	.
iii7c	8CC	4A	8d	8f	4cc
viio	8GG	.	8c	8e-	.
I	4AA-	8B-	4B-	8d	4dd
.	.	8A	.	8f	.
IVb	4DD-	8G	4B-	8g	4ee-
.	.	8F	.	8a	.
=12	=12	=12	=12	=12	=12
IV7	4DD-	4E-	4g	4b-	4dd
V	4EE-	4F	8c	4a	4cc
.	.	.	16d	.	.
.	.	.	16e-	.	.
I;	4AA-;	4BB-;	4d;	4f;	4b-;
==	==	==	==	==	==
*-	*-	*-	*-	*-	*-
!!chor2scor: -l 2 -s 0.6 -o %b.pmx
!!!YEC: Copyright 1994, David Huron
!!!YEC: Changes/Additions 2001 by Craig Stuart Sapp
!!!YEN: United States of America
!!!SMA: 371 Bach Chorales, edited by Ludwig Erk, C.F. Peters
!!!PDT: 1850, 1865
!!!ONB: Harmony and Root analysis done manually
